X:1
T:The Rich Old Lady
M:2/2
L:1/8
K:Eb
 G2G-c| c6d-c| G B3 z2 z G| d d3d-c G d-| c4-c-G(3B3.99999962500005/5.99999925000009B3.99999962500005/5.99999925000009G3.99999962500005/5.99999925000009B3.99999962500005/5.99999925000009G3.99999962500005/5.99999925000009F3.99999962500005/5.99999925000009|\
 G4 z2 z G| _d d3d-cB-G|c-BG-F F2 GG| B B2 BG-F D C-| C4 z4|G,/2-C/2 C3C-D F G-|\
 G6- c2-|G-A C4C-D| F2 A2A-G F C-| C8| z4||
